X: 9767
T: Delighted
R: reel
M: 4/4
K: Fmajor
A3 B|:"F"cF ~F2 "C"EF"Bb"DF|"F"cF~F2 "Bb"dF"F"cF|"F"cF ~F2 "C"EF"Bb"DF|"Bb" BFDB FDBF|
"F"cF ~F2 "C"EF"Bb"DF|"F"cF~F2 "Bb"dF"F"cd|"F" fcAf cAfA|1 "Bb"BA _E2 "F"F2 AB:|2 "Bb"BA _E2 "F"F2 =e2||
|:"F" fc ~c2 "C7"=Bc"F"_Bc|"F"Ac ~c2 ac"C7"gc|"F" fc ~c2 "C7"=Bc"F"_Bc|"F" AF ~F2 EF_EF|
"F" fc ~c2 "C7"=Bc"F"_Bc|"F"Ac ~c2 ac"C7"gc|"F" fcAf cAfA|1 "Bb"BA _E2 "F"F2 =e2:|2 "Bb"BA _E2 "F"F2 A2||

